X: 17151
T: Hem Från Gesunda
R: polka
M: 2/4
K: Aminor
|:[E4C4] ([E3A,3]E) [A3E3]c|(B^G3) (E3G) B3d|~d4 (e3c) A3B|Tc4 (B^G3) E3E|
(C3E) ([E3A,3]E) [A3E3]c|(B^G3) (E3G) B3d|~d4 (e3c) A3B|^G4 [A8E8]:|
"B"|:(a2~g2) (eA3) [d3D3]d|(Tc2A2) [B6E6] ((3EF^G|A3)(B cBcd) e3c|TB4 A^G3 [A3E3]a|
(a2~g2) (eA3) [d3D3]d|(cd)cA [B6E6] ((3EF^G|A3)(B cBcd) e3c|1 B^G3 [A8E8]:|2 (Bc)B^G [A6E6] ((3BcB||
"C"|:A^G3) (E3F) D3E|(CD3) (B,2G,2) A,4-|[E4A,4] (A3c) e3c|Tc4 (Be)B^G E2 ((3BcB|
A^G3) (E3F) D3E|(CD3) (B,2G,2) A,4-|[E4A,4] (A3c) e3c|1 TB2A^G [A6E6] ((3BcB:|2 TB2A^G [A8E8]||

